X:1
T:Title
%%score { ( 1 3 ) | ( 2 4 ) }
L:1/8
M:4/4
K:Ab
V:1 treble nm="Grand Piano"
V:3 treble 
V:2 bass 
V:4 bass 
V:1
 z4 z2[Q:1/4=106] C>E | A6 z2 | z2 C>C C2 A>c | e6 z2 |[M:3/4] [CEA]6 |[M:1/4] [CEA]2 | %6
[M:4/4] z4 [FA]4 |[M:3/4] [CEA]6 | z6 | z6 | z6 | z6 | z6 | z6 | z6 |[M:2/4] z4 |[M:1/4] z2 | %17
[M:4/4] z2 [EAc]6 | [CEA][A,CE] [A,DF]2 .[A,FA]2 [A,CE]2- | [A,CE]2 c2 c>d e2 | %20
 c2 [GB]>[Ac] [Bd]>[Ac] [GB]2- | [GB]2 e2 c>d e2 | c2 AA Bc [Fd]2- | [Fd]2 c4 A2 | %24
[M:3/4] B2 [EA]4- |[M:1/4] [EA]2 | E2 |[M:4/4] z2 C2 C2 cA | z2 C2 C2 A2 | B6 z2 | c6 z2 | F6 z2 | %32
 z2 C2 C2 AB | c2 c>[Fd] [Ec]2 [EB]2 |[M:3/4] [EA]6 |[M:1/4] E2 |[M:4/4] z2 C2 C2 cA | %37
 z2 C2 C2 A2 | B6 z2 | c6 z2 | F6 z2 | z2 C2 C2 AB | c2 c>[Fd] [Ec]2 [EB]2 |[M:3/4] [EA]6 | %44
[M:1/4] E2 |[M:6/8] c2 c cdc | [Ac][GB][GB] .[GB]3 | [GB]2 [GB] [GB][Ac][GB] | BAA A3 | %49
 A2 G FF[A,F] | [A,CE][CEA][DGB] .[EAc]2 [DEB] |[M:2/4] [CEA]4 |[M:4/4] z2 A6 | c>A z2 C>C C2 | %54
 z2 e6 |[M:7/4] [EAc][DGB] [CEA]6 z2 z4 |] %56
V:2
 z8 | z2 [A,C]>[A,C] [A,C]2 z2 | z2 A,>A, A,2 z2 | z2 [E,A,]>[E,C] [E,E][E,CE]E,E, |[M:3/4] A,,6 | %5
[M:1/4] A,,2 |[M:4/4] D,4 z2 B,2 |[M:3/4] A,,6 | E2 E2 C2 | E2 A4 | AB c2 A2 | F2 F>E E2 | z2 E4 | %13
 EA c4 | A2 c2 A2 |[M:2/4] B2 A2- |[M:1/4] A2 |[M:4/4] z2[K:bass] A,6 | A,,A,, D,2 z D A,,2- | %19
 A,,2[K:treble] [A,EA]2 [A,EA]>[A,EA] [A,CA]2 | [A,EA]2[K:bass] [E,E]>[E,E] [E,E]>[E,E] [E,E]2- | %21
 [E,E]2[K:treble] [A,CA]2 [A,EA]>[A,DA] [A,CA]2 | %22
 [A,EA]2 [A,CE][A,CE] [A,B,E][A,_G][K:bass] [D,A,]2- | [D,A,]2 [E,A,E]4 [E,A,E]2 | %24
[M:3/4] [E,G,E]2 [A,,A,]4- |[M:1/4] [A,,A,]2 | z2 |[M:4/4] z2 [A,,A,]2 [A,,A,]2 z2 | %28
 z2 [A,,A,]2 [A,,A,]2 z2 | z2 [E,G,]2 [E,G,]2 z2 | z2 [A,,A,][A,,A,] [A,,A,]2 z2 | %31
 z2 [D,A,]2 [D,A,]2 z2 | z4 z2[K:treble] .C2 | [A,EA]2 [A,CA]>[K:bass][D,A,] [E,A,]2 [E,G,]2 | %34
[M:3/4] [A,,A,]6 |[M:1/4] z2 |[M:4/4] z2 [A,,A,]2 [A,,A,]2 z2 | z2 [A,,A,]2 [A,,A,]2 z2 | %38
 z2 [E,G,]2 [E,G,]2 z2 | z2 [A,,A,][A,,A,] [A,,A,]2 z2 | z2 [D,A,]2 [D,A,]2 z2 | %41
 z4 z2[K:treble] .C2 | [A,EA]2 [A,CA]>[K:bass][D,A,] [E,A,]2 [E,G,]2 |[M:3/4] [A,,A,]6 | %44
[M:1/4] [A,C]2 |[M:6/8] [A,E]2 [A,E] [A,E][A,E][A,CE] | [E,E][E,E][E,E] [E,E]2 [E,E] | %47
 [E,E]2 [E,E] [E,E][E,E][E,E] | [A,E][A,CE][A,CE] [A,CE]3 | A,2 G, F,F,D, | E,E,E, z EE, | %51
[M:2/4] A,,4 |[M:4/4] z4 [A,C]>[A,C] [A,C]2 | z4 A,>A, A,2 | z4 [E,A,]>[E,C] [E,E][E,CE] | %55
[M:7/4] E,E, A,,6 z2 z4 |] %56
V:3
 x8 | z2 E>E E2 c>A | E6 z2 | z2 A>A AA[EAc][DGB] |[M:3/4] x6 |[M:1/4] x2 |[M:4/4] [DFA]4 A,2 z2 | %7
[M:3/4] x6 | x6 | x6 | x6 | x6 | x6 | x6 | x6 |[M:2/4] x4 |[M:1/4] x2 |[M:4/4] x8 | x8 | x8 | x8 | %21
 x8 | x8 | x8 |[M:3/4] x6 |[M:1/4] x2 | x2 |[M:4/4] E6 z2 | E6 z2 | z2 E2 E2 AB | z2 EE E2 A2 | %31
 z2 D2 D2 A2 | E6 z2 | x8 |[M:3/4] x6 |[M:1/4] x2 |[M:4/4] E6 z2 | E6 z2 | z2 E2 E2 AB | %39
 z2 EE E2 A2 | z2 D2 D2 A2 | E6 z2 | x8 |[M:3/4] x6 |[M:1/4] x2 |[M:6/8] x6 | x6 | x6 | x6 | x6 | %50
 x6 |[M:2/4] x4 |[M:4/4] C>E z2 E>E E2 | z2 E6 | A>c z2 A>A AA |[M:7/4] x14 |] %56
V:4
 x8 | x8 | x8 | x8 |[M:3/4] x6 |[M:1/4] x2 |[M:4/4] z4 D,4 |[M:3/4] x6 | x6 | x6 | x6 | x6 | x6 | %13
 x6 | x6 |[M:2/4] x4 |[M:1/4] x2 |[M:4/4] x2[K:bass] x6 | z4 D,2 z2 | x2[K:treble] x6 | %20
 x2[K:bass] x6 | x2[K:treble] x6 | x6[K:bass] x2 | x8 |[M:3/4] x6 |[M:1/4] x2 | x2 |[M:4/4] x8 | %28
 x8 | x8 | x8 | x8 | z2 [A,,A,]2 [A,,A,]2[K:treble] [A,E]-[A,DE] | x7/2[K:bass] x9/2 |[M:3/4] x6 | %35
[M:1/4] x2 |[M:4/4] x8 | x8 | x8 | x8 | x8 | z2 [A,,A,]2 [A,,A,]2[K:treble] [A,E]-[A,DE] | %42
 x7/2[K:bass] x9/2 |[M:3/4] x6 |[M:1/4] x2 |[M:6/8] x6 | x6 | x6 | x6 | x6 | z3 .E,3 |[M:2/4] x4 | %52
[M:4/4] x8 | x8 | x8 |[M:7/4] x14 |] %56

